Newaita-dark/apps/22/shotwell.svg

<?xml version="1.0" encoding="UTF-8"?>
<svg xmlns="http://www.w3.org/2000/svg" xmlns:xlink="http://www.w3.org/1999/xlink" width="22pt" height="22pt" viewBox="0 0 22 22" version="1.1">
<defs>
<linearGradient id="linear0" gradientUnits="userSpaceOnUse" x1="190.5" y1="-168.666656" x2="190.5" y2="170" gradientTransform="matrix(1,0,0,1,74.083374,-0.0000133568)">
<stop offset="0" style="stop-color:rgb(87.843137%,87.843137%,87.843137%);stop-opacity:1;"/>
<stop offset="1" style="stop-color:rgb(74.117647%,74.117647%,74.117647%);stop-opacity:1;"/>
</linearGradient>
<linearGradient id="linear1" gradientUnits="userSpaceOnUse" x1="179.916672" y1="95.916664" x2="179.916672" y2="-147.5" gradientTransform="matrix(1,0,0,1,52.916706,-0.0000133568)">
<stop offset="0" style="stop-color:rgb(25.882353%,25.882353%,25.882353%);stop-opacity:1;"/>
<stop offset="1" style="stop-color:rgb(38.039216%,38.039216%,38.039216%);stop-opacity:1;"/>
</linearGradient>
<linearGradient id="linear2" gradientUnits="userSpaceOnUse" x1="190.5" y1="-168.666656" x2="190.5" y2="170" gradientTransform="matrix(1,0,0,1,74.083374,-0.0000133568)">
<stop offset="0" style="stop-color:rgb(87.843137%,87.843137%,87.843137%);stop-opacity:1;"/>
<stop offset="1" style="stop-color:rgb(74.117647%,74.117647%,74.117647%);stop-opacity:1;"/>
</linearGradient>
<linearGradient id="linear3" gradientUnits="userSpaceOnUse" x1="179.916672" y1="95.916664" x2="179.916672" y2="-147.5" gradientTransform="matrix(1,0,0,1,52.916706,-0.0000133568)">
<stop offset="0" style="stop-color:rgb(25.882353%,25.882353%,25.882353%);stop-opacity:1;"/>
<stop offset="1" style="stop-color:rgb(38.039216%,38.039216%,38.039216%);stop-opacity:1;"/>
</linearGradient>
<linearGradient id="linear4" gradientUnits="userSpaceOnUse" x1="254" y1="233.5" x2="254" y2="254.666672" gradientTransform="matrix(0.0429729,0,0,0.0429729,1.819181,6.58619)">
<stop offset="0" style="stop-color:rgb(0%,0%,0%);stop-opacity:0.27451;"/>
<stop offset="1" style="stop-color:rgb(0%,0%,0%);stop-opacity:0;"/>
</linearGradient>
<radialGradient id="radial0" gradientUnits="userSpaceOnUse" cx="450.908936" cy="189.579361" fx="450.908936" fy="189.579361" r="21.166656" gradientTransform="matrix(0.000000119742,-0.0537161,-0.0966889,-0.0000000698078,34.020639,40.993016)">
<stop offset="0" style="stop-color:rgb(0%,0%,0%);stop-opacity:0.313725;"/>
<stop offset="0.222222" style="stop-color:rgb(0%,0%,0%);stop-opacity:0.27451;"/>
<stop offset="1" style="stop-color:rgb(0%,0%,0%);stop-opacity:0;"/>
</radialGradient>
<radialGradient id="radial1" gradientUnits="userSpaceOnUse" cx="450.908936" cy="189.579361" fx="450.908936" fy="189.579361" r="21.166656" gradientTransform="matrix(-0.000000119742,0.0537161,0.0966889,0.0000000698078,-12.190426,-7.903916)">
<stop offset="0" style="stop-color:rgb(0%,0%,0%);stop-opacity:0.313725;"/>
<stop offset="0.222222" style="stop-color:rgb(0%,0%,0%);stop-opacity:0.27451;"/>
<stop offset="1" style="stop-color:rgb(0%,0%,0%);stop-opacity:0;"/>
</radialGradient>
<radialGradient id="radial2" gradientUnits="userSpaceOnUse" cx="450.908936" cy="189.579361" fx="450.908936" fy="189.579361" r="21.166656" gradientTransform="matrix(-0.000000119742,-0.0537161,0.0966889,-0.0000000698078,-12.190426,40.993016)">
<stop offset="0" style="stop-color:rgb(0%,0%,0%);stop-opacity:0.313725;"/>
<stop offset="0.222222" style="stop-color:rgb(0%,0%,0%);stop-opacity:0.27451;"/>
<stop offset="1" style="stop-color:rgb(0%,0%,0%);stop-opacity:0;"/>
</radialGradient>
<radialGradient id="radial3" gradientUnits="userSpaceOnUse" cx="450.908936" cy="189.579361" fx="450.908936" fy="189.579361" r="21.166656" gradientTransform="matrix(0.000000119742,0.0537161,-0.0966889,0.0000000698078,34.020638,-7.903917)">
<stop offset="0" style="stop-color:rgb(0%,0%,0%);stop-opacity:0.313725;"/>
<stop offset="0.222222" style="stop-color:rgb(0%,0%,0%);stop-opacity:0.27451;"/>
<stop offset="1" style="stop-color:rgb(0%,0%,0%);stop-opacity:0;"/>
</radialGradient>
<linearGradient id="linear5" gradientUnits="userSpaceOnUse" x1="190.5" y1="-168.666656" x2="190.5" y2="170" gradientTransform="matrix(1,0,0,1,74.083374,-0.00001)">
<stop offset="0" style="stop-color:rgb(93.333333%,93.333333%,93.333333%);stop-opacity:1;"/>
<stop offset="1" style="stop-color:rgb(74.117647%,74.117647%,74.117647%);stop-opacity:1;"/>
</linearGradient>
<linearGradient id="linear6" gradientUnits="userSpaceOnUse" x1="201.083298" y1="170.000015" x2="201.083298" y2="-147.499985" gradientTransform="matrix(0.0429729,0,0,0.0429729,2.273982,9.239163)">
<stop offset="0" style="stop-color:rgb(50.588235%,83.137255%,98.039216%);stop-opacity:1;"/>
<stop offset="1" style="stop-color:rgb(98.823529%,89.411765%,92.54902%);stop-opacity:1;"/>
</linearGradient>
<linearGradient id="linear7" gradientUnits="userSpaceOnUse" x1="960" y1="1615.118164" x2="960" y2="1015.118103" gradientTransform="matrix(0.0113699,0,0,0.0113699,3.638367,-5.002745)">
<stop offset="0" style="stop-color:rgb(27.058824%,35.294118%,39.215686%);stop-opacity:1;"/>
<stop offset="1" style="stop-color:rgb(47.058824%,56.470588%,61.176471%);stop-opacity:1;"/>
</linearGradient>
<linearGradient id="linear8" gradientUnits="userSpaceOnUse" x1="359.833344" y1="-20.5" x2="359.833344" y2="-105.166672" gradientTransform="matrix(0.0322296,0,0,0.0322296,2.501378,7.199744)">
<stop offset="0" style="stop-color:rgb(89.803922%,45.098039%,45.098039%);stop-opacity:1;"/>
<stop offset="1" style="stop-color:rgb(93.72549%,60.392157%,60.392157%);stop-opacity:1;"/>
</linearGradient>
</defs>
<g id="surface1">
<path style="fill-rule:nonzero;fill:url(#linear0);stroke-width:3;stroke-linecap:round;stroke-linejoin:miter;stroke:rgb(12.941177%,12.941177%,12.941177%);stroke-opacity:1;stroke-miterlimit:4;" d="M 116.451314 -168.674169 L 391.608895 -168.631721 C 403.296384 -168.699707 412.794194 -159.190856 412.774377 -147.526895 L 412.794396 148.821506 C 412.774579 160.485467 403.265728 169.983278 391.601766 169.963461 L 116.420658 170.008817 C 104.756697 169.989 95.258886 160.480149 95.278703 148.816187 L 95.258684 -147.532213 C 95.278502 -159.196175 104.699549 -168.717513 116.451314 -168.674169 Z M 116.451314 -168.674169 " transform="matrix(0.0415086,-0.0111222,0.0111222,0.0415086,-1.403016,13.503652)"/>
<path style="fill-rule:nonzero;fill:url(#linear1);stroke-width:3;stroke-linecap:round;stroke-linejoin:miter;stroke:rgb(12.941177%,12.941177%,12.941177%);stroke-opacity:1;stroke-miterlimit:4;" d="M 137.59327 -147.481539 L 370.416265 -147.489766 C 382.080227 -147.469949 391.601565 -138.048901 391.558221 -126.297136 L 391.616217 74.731019 C 391.572873 86.482784 382.087549 95.892792 370.423587 95.872975 L 137.600591 95.881202 C 125.913103 95.949188 116.415292 86.440337 116.435109 74.776375 L 116.40064 -126.339583 C 116.420457 -138.003545 125.929308 -147.501356 137.59327 -147.481539 Z M 137.59327 -147.481539 " transform="matrix(0.0415086,-0.0111222,0.0111222,0.0415086,-1.403016,13.503652)"/>
<path style="fill-rule:nonzero;fill:url(#linear2);stroke-width:3;stroke-linecap:round;stroke-linejoin:miter;stroke:rgb(12.941177%,12.941177%,12.941177%);stroke-opacity:1;stroke-miterlimit:4;" d="M 116.408305 -168.698989 L 391.568036 -168.691106 C 403.231939 -168.648971 412.755076 -159.211775 412.736001 -147.459946 L 412.728953 148.843853 C 412.774745 160.484696 403.249623 170.030893 391.58572 169.988758 L 116.425989 169.980874 C 104.69722 170.049726 95.23895 160.501544 95.281085 148.837641 L 95.288133 -147.466158 C 95.219281 -159.194927 104.767463 -168.653198 116.408305 -168.698989 Z M 116.408305 -168.698989 " transform="matrix(0.0415671,0.0109016,-0.0109016,0.0415671,2.079976,7.934697)"/>
<path style="fill-rule:nonzero;fill:url(#linear3);stroke-width:3;stroke-linecap:round;stroke-linejoin:miter;stroke:rgb(12.941177%,12.941177%,12.941177%);stroke-opacity:1;stroke-miterlimit:4;" d="M 137.57627 -147.46783 L 370.424804 -147.546202 C 382.088706 -147.504067 391.611843 -138.066871 391.592768 -126.315042 L 391.614393 74.784956 C 391.572258 86.448858 382.112003 95.884068 370.383233 95.95292 L 137.599566 95.920305 C 125.847737 95.90123 116.412527 86.440975 116.454662 74.777072 L 116.433037 -126.322925 C 116.364185 -138.051695 125.912367 -147.509965 137.57627 -147.46783 Z M 137.57627 -147.46783 " transform="matrix(0.0415671,0.0109016,-0.0109016,0.0415671,2.079976,7.934697)"/>
<path style=" stroke:none;fill-rule:nonzero;fill:url(#linear4);" d="M 5.914062 16.394531 L 15.917969 16.394531 L 15.917969 17.453125 L 5.914062 17.453125 Z M 5.914062 16.394531 "/>
<path style=" stroke:none;fill-rule:nonzero;fill:url(#radial0);" d="M 15.917969 16.542969 L 17.738281 16.542969 L 17.738281 15.636719 L 15.917969 15.636719 Z M 15.917969 16.542969 "/>
<path style=" stroke:none;fill-rule:nonzero;fill:url(#radial1);" d="M 5.914062 16.542969 L 4.09375 16.542969 L 4.09375 17.453125 L 5.914062 17.453125 Z M 5.914062 16.542969 "/>
<path style=" stroke:none;fill-rule:nonzero;fill:url(#radial2);" d="M 5.914062 16.542969 L 4.09375 16.542969 L 4.09375 15.636719 L 5.914062 15.636719 Z M 5.914062 16.542969 "/>
<path style=" stroke:none;fill-rule:nonzero;fill:url(#radial3);" d="M 15.917969 16.542969 L 17.738281 16.542969 L 17.738281 17.453125 L 15.917969 17.453125 Z M 15.917969 16.542969 "/>
<path style="fill-rule:nonzero;fill:url(#linear5);stroke-width:3;stroke-linecap:round;stroke-linejoin:miter;stroke:rgb(12.941177%,12.941177%,12.941177%);stroke-opacity:1;stroke-miterlimit:4;" d="M 116.443426 -168.640791 L 391.598968 -168.640791 C 403.23422 -168.640791 412.778763 -159.187148 412.778763 -147.460995 L 412.778763 148.874343 C 412.778763 160.509595 403.23422 169.963238 391.598968 169.963238 L 116.443426 169.963238 C 104.717273 169.963238 95.26363 160.509595 95.26363 148.874343 L 95.26363 -147.460995 C 95.26363 -159.187148 104.717273 -168.640791 116.443426 -168.640791 Z M 116.443426 -168.640791 " transform="matrix(0.0429729,0,0,0.0429729,0,9.239163)"/>
<path style=" stroke:none;fill-rule:nonzero;fill:url(#linear6);" d="M 5.914062 2.902344 L 15.917969 2.902344 C 16.421875 2.902344 16.828125 3.308594 16.828125 3.808594 L 16.828125 11.996094 C 16.828125 12.5 16.421875 12.90625 15.917969 12.90625 L 5.914062 12.90625 C 5.410156 12.90625 5.003906 12.5 5.003906 11.996094 L 5.003906 3.808594 C 5.003906 3.308594 5.410156 2.902344 5.914062 2.902344 Z M 5.914062 2.902344 "/>
<path style=" stroke:none;fill-rule:nonzero;fill:url(#linear7);" d="M 5.003906 10.515625 L 5.003906 11.992188 C 5.003906 12.496094 5.410156 12.902344 5.914062 12.902344 L 15.917969 12.902344 C 16.421875 12.902344 16.828125 12.496094 16.828125 11.992188 L 16.828125 9.722656 C 13.046875 11.9375 12.734375 9.605469 11.140625 9.5625 C 10.1875 9.535156 9.550781 10.800781 8.574219 10.71875 C 7.714844 10.648438 7.503906 9.605469 6.355469 9.664062 C 5.894531 9.6875 5.683594 9.605469 5.003906 10.515625 Z M 5.003906 10.515625 "/>
<path style="fill-rule:nonzero;fill:rgb(90.196079%,90.196079%,90.196079%);fill-opacity:0.588235;stroke-width:2;stroke-linecap:butt;stroke-linejoin:miter;stroke:rgb(100%,100%,100%);stroke-opacity:1;stroke-miterlimit:4;" d="M 116.443426 -168.640791 C 104.717273 -168.640791 95.26363 -159.187148 95.26363 -147.460995 L 95.26363 -144.824883 C 95.26363 -156.551036 104.717273 -166.004679 116.443426 -166.004679 L 391.598968 -166.004679 C 403.325121 -166.004679 412.778763 -156.551036 412.778763 -144.824883 L 412.778763 -147.460995 C 412.778763 -159.187148 403.325121 -168.640791 391.598968 -168.640791 Z M 116.443426 -168.640791 " transform="matrix(0.0429729,0,0,0.0429729,0,9.239163)"/>
<path style=" stroke:none;fill-rule:nonzero;fill:rgb(12.941177%,12.941177%,12.941177%);fill-opacity:1;" d="M 5.003906 1.925781 C 4.464844 1.925781 4.027344 2.363281 4.027344 2.902344 L 4.027344 15.636719 C 4.027344 16.171875 4.464844 16.609375 5.003906 16.609375 L 16.828125 16.609375 C 17.367188 16.609375 17.800781 16.171875 17.800781 15.636719 L 17.800781 2.902344 C 17.800781 2.363281 17.367188 1.925781 16.828125 1.925781 Z M 5.003906 2.054688 L 16.828125 2.054688 C 17.296875 2.054688 17.671875 2.429688 17.671875 2.902344 L 17.671875 15.636719 C 17.671875 16.105469 17.296875 16.480469 16.828125 16.480469 L 5.003906 16.480469 C 4.535156 16.480469 4.15625 16.105469 4.15625 15.636719 L 4.15625 2.902344 C 4.15625 2.429688 4.535156 2.054688 5.003906 2.054688 Z M 5.003906 2.054688 "/>
<path style=" stroke:none;fill-rule:nonzero;fill:url(#linear8);" d="M 14.097656 3.808594 C 14.851562 3.808594 15.464844 4.421875 15.464844 5.175781 C 15.464844 5.929688 14.851562 6.539062 14.097656 6.539062 C 13.34375 6.539062 12.734375 5.929688 12.734375 5.175781 C 12.734375 4.421875 13.34375 3.808594 14.097656 3.808594 Z M 14.097656 3.808594 "/>
<path style=" stroke:none;fill-rule:nonzero;fill:rgb(12.941177%,12.941177%,12.941177%);fill-opacity:1;" d="M 5.914062 2.835938 C 5.375 2.835938 4.9375 3.273438 4.9375 3.808594 L 4.9375 11.996094 C 4.9375 12.535156 5.375 12.96875 5.914062 12.96875 L 15.917969 12.96875 C 16.457031 12.96875 16.890625 12.535156 16.890625 11.996094 L 16.890625 3.808594 C 16.890625 3.273438 16.457031 2.835938 15.917969 2.835938 Z M 5.914062 2.964844 L 15.917969 2.964844 C 16.386719 2.964844 16.761719 3.339844 16.761719 3.808594 L 16.761719 11.996094 C 16.761719 12.464844 16.386719 12.839844 15.917969 12.839844 L 5.914062 12.839844 C 5.441406 12.839844 5.066406 12.464844 5.066406 11.996094 L 5.066406 3.808594 C 5.066406 3.339844 5.441406 2.964844 5.914062 2.964844 Z M 5.914062 2.964844 "/>
<path style="fill:none;stroke-width:3;stroke-linecap:round;stroke-linejoin:round;stroke:rgb(10.196079%,13.725491%,49.411765%);stroke-opacity:1;stroke-miterlimit:4;" d="M 221.544247 136.368971 C 219.362637 122.097607 236.997316 115.643678 228.99808 137.096175 C 221.907848 156.09436 212.363305 156.821564 212.545106 152.003842 C 213.36321 145.00451 221.998749 148.549626 228.361777 149.36773 C 236.906416 150.367635 245.178353 138.27788 244.632951 130.187744 " transform="matrix(0.0429729,0,0,0.0429729,2.956174,8.784367)"/>
<path style="fill:none;stroke-width:3;stroke-linecap:round;stroke-linejoin:round;stroke:rgb(10.196079%,13.725491%,49.411765%);stroke-opacity:1;stroke-miterlimit:4;" d="M 239.178926 128.369735 C 243.633046 114.00747 267.812555 107.371741 259.722419 128.915138 C 252.632187 147.822423 241.087835 147.640622 239.815229 143.004701 C 238.633524 138.36878 244.723851 130.096843 244.632951 130.187744 " transform="matrix(0.0429729,0,0,0.0429729,2.956174,8.784367)"/>
<path style="fill:none;stroke-width:3;stroke-linecap:round;stroke-linejoin:round;stroke:rgb(10.196079%,13.725491%,49.411765%);stroke-opacity:1;stroke-miterlimit:4;" d="M 265.358244 121.370404 C 282.992924 116.643582 280.447712 109.916952 279.81141 107.553541 C 270.085066 126.642628 269.176062 143.277403 269.903265 138.27788 " transform="matrix(0.0429729,0,0,0.0429729,2.956174,8.784367)"/>
<path style="fill:none;stroke-width:3;stroke-linecap:round;stroke-linejoin:round;stroke:rgb(10.196079%,13.725491%,49.411765%);stroke-opacity:1;stroke-miterlimit:4;" d="M 285.265434 112.734865 C 285.447235 101.099612 304.445421 104.008425 294.446376 114.098371 C 286.174438 122.370308 275.084588 127.006229 279.266007 133.278357 C 284.35643 140.095888 298.082392 129.824142 291.446662 123.370213 C 284.992733 117.734387 283.629227 115.643678 282.992924 113.280267 " transform="matrix(0.0429729,0,0,0.0429729,2.956174,8.784367)"/>
<path style="fill:none;stroke-width:3;stroke-linecap:round;stroke-linejoin:round;stroke:rgb(10.196079%,13.725491%,49.411765%);stroke-opacity:1;stroke-miterlimit:4;" d="M 214.272214 166.002505 C 267.267153 139.550486 328.079527 139.550486 314.898968 144.82271 " transform="matrix(0.0429729,0,0,0.0429729,2.956174,8.784367)"/>
</g>
</svg>

<svg xmlns="http://www.w3.org/2000/svg" width="22pt" height="22pt" viewBox="0 0 22 22"><defs><linearGradient id="a" gradientUnits="userSpaceOnUse" x1="190.5" y1="-168.667" x2="190.5" y2="170" gradientTransform="translate(74.083)"><stop offset="0" stop-color="#e0e0e0"/><stop offset="1" stop-color="#bdbdbd"/></linearGradient><linearGradient id="b" gradientUnits="userSpaceOnUse" x1="179.917" y1="95.917" x2="179.917" y2="-147.5" gradientTransform="translate(52.917)"><stop offset="0" stop-color="#424242"/><stop offset="1" stop-color="#616161"/></linearGradient><linearGradient id="c" gradientUnits="userSpaceOnUse" x1="190.5" y1="-168.667" x2="190.5" y2="170" gradientTransform="translate(74.083)"><stop offset="0" stop-color="#e0e0e0"/><stop offset="1" stop-color="#bdbdbd"/></linearGradient><linearGradient id="d" gradientUnits="userSpaceOnUse" x1="179.917" y1="95.917" x2="179.917" y2="-147.5" gradientTransform="translate(52.917)"><stop offset="0" stop-color="#424242"/><stop offset="1" stop-color="#616161"/></linearGradient><linearGradient id="e" gradientUnits="userSpaceOnUse" x1="254" y1="233.5" x2="254" y2="254.667" gradientTransform="matrix(.04297 0 0 .04297 1.82 6.586)"><stop offset="0" stop-opacity=".275"/><stop offset="1" stop-opacity="0"/></linearGradient><radialGradient id="f" gradientUnits="userSpaceOnUse" cx="450.909" cy="189.579" fx="450.909" fy="189.579" r="21.167" gradientTransform="matrix(0 -.05372 -.09669 0 34.02 40.993)"><stop offset="0" stop-opacity=".314"/><stop offset=".222" stop-opacity=".275"/><stop offset="1" stop-opacity="0"/></radialGradient><radialGradient id="g" gradientUnits="userSpaceOnUse" cx="450.909" cy="189.579" fx="450.909" fy="189.579" r="21.167" gradientTransform="matrix(0 .05372 .09669 0 -12.19 -7.904)"><stop offset="0" stop-opacity=".314"/><stop offset=".222" stop-opacity=".275"/><stop offset="1" stop-opacity="0"/></radialGradient><radialGradient id="h" gradientUnits="userSpaceOnUse" cx="450.909" cy="189.579" fx="450.909" fy="189.579" r="21.167" gradientTransform="matrix(0 -.05372 .09669 0 -12.19 40.993)"><stop offset="0" stop-opacity=".314"/><stop offset=".222" stop-opacity=".275"/><stop offset="1" stop-opacity="0"/></radialGradient><radialGradient id="i" gradientUnits="userSpaceOnUse" cx="450.909" cy="189.579" fx="450.909" fy="189.579" r="21.167" gradientTransform="matrix(0 .05372 -.09669 0 34.02 -7.904)"><stop offset="0" stop-opacity=".314"/><stop offset=".222" stop-opacity=".275"/><stop offset="1" stop-opacity="0"/></radialGradient><linearGradient id="j" gradientUnits="userSpaceOnUse" x1="190.5" y1="-168.667" x2="190.5" y2="170" gradientTransform="translate(74.083)"><stop offset="0" stop-color="#eee"/><stop offset="1" stop-color="#bdbdbd"/></linearGradient><linearGradient id="k" gradientUnits="userSpaceOnUse" x1="201.083" y1="170" x2="201.083" y2="-147.5" gradientTransform="matrix(.04297 0 0 .04297 2.274 9.24)"><stop offset="0" stop-color="#81d4fa"/><stop offset="1" stop-color="#fce4ec"/></linearGradient><linearGradient id="l" gradientUnits="userSpaceOnUse" x1="960" y1="1615.118" x2="960" y2="1015.118" gradientTransform="matrix(.01137 0 0 .01137 3.638 -5.003)"><stop offset="0" stop-color="#455a64"/><stop offset="1" stop-color="#78909c"/></linearGradient><linearGradient id="m" gradientUnits="userSpaceOnUse" x1="359.833" y1="-20.5" x2="359.833" y2="-105.167" gradientTransform="matrix(.03223 0 0 .03223 2.501 7.2)"><stop offset="0" stop-color="#e57373"/><stop offset="1" stop-color="#ef9a9a"/></linearGradient></defs><path d="M116.451-168.674l275.158.042c11.687-.068 21.185 9.441 21.165 21.105l.02 296.349c-.02 11.663-9.528 21.161-21.192 21.141l-275.181.046c-11.664-.02-21.162-9.529-21.142-21.193l-.02-296.348c.02-11.664 9.44-21.186 21.192-21.142zm0 0" transform="matrix(.0415 -.01112 .01112 .0415 -1.403 13.504)" fill="url(#a)" stroke-width="3" stroke-linecap="round" stroke="#212121"/><path d="M137.593-147.482l232.823-.008c11.664.02 21.186 9.441 21.142 21.193l.058 201.028c-.043 11.752-9.528 21.162-21.192 21.142l-232.823.008c-11.688.068-21.186-9.44-21.166-21.105l-.034-201.116c.02-11.664 9.528-21.161 21.192-21.142zm0 0" transform="matrix(.0415 -.01112 .01112 .0415 -1.403 13.504)" fill="url(#b)" stroke-width="3" stroke-linecap="round" stroke="#212121"/><path d="M116.408-168.699l275.16.008c11.664.042 21.187 9.48 21.168 21.231l-.007 296.304c.046 11.64-9.48 21.187-21.143 21.145l-275.16-.008c-11.729.069-21.187-9.48-21.145-21.143l.007-296.304c-.069-11.729 9.48-21.187 21.12-21.233zm0 0" transform="matrix(.04157 .0109 -.0109 .04157 2.08 7.935)" fill="url(#c)" stroke-width="3" stroke-linecap="round" stroke="#212121"/><path d="M137.576-147.468l232.849-.078c11.664.042 21.187 9.48 21.168 21.231l.021 201.1c-.042 11.664-9.502 21.1-21.23 21.168L137.6 95.92c-11.752-.019-21.187-9.479-21.145-21.143l-.022-201.1c-.069-11.729 9.48-21.187 21.143-21.145zm0 0" transform="matrix(.04157 .0109 -.0109 .04157 2.08 7.935)" fill="url(#d)" stroke-width="3" stroke-linecap="round" stroke="#212121"/><path d="M5.914 16.395h10.004v1.058H5.914zm0 0" fill="url(#e)"/><path d="M15.918 16.543h1.82v-.906h-1.82zm0 0" fill="url(#f)"/><path d="M5.914 16.543h-1.82v.91h1.82zm0 0" fill="url(#g)"/><path d="M5.914 16.543h-1.82v-.906h1.82zm0 0" fill="url(#h)"/><path d="M15.918 16.543h1.82v.91h-1.82zm0 0" fill="url(#i)"/><path d="M116.443-168.64H391.6c11.635 0 21.18 9.453 21.18 21.179v296.335c0 11.636-9.545 21.09-21.18 21.09H116.443c-11.726 0-21.18-9.454-21.18-21.09V-147.46a21.143 21.143 0 0 1 21.18-21.18zm0 0" transform="matrix(.04297 0 0 .04297 0 9.24)" fill="url(#j)" stroke-width="3" stroke-linecap="round" stroke="#212121"/><path d="M5.914 2.902h10.004c.504 0 .91.407.91.907v8.187c0 .504-.406.91-.91.91H5.914a.909.909 0 0 1-.91-.91V3.81c0-.5.406-.907.91-.907zm0 0" fill="url(#k)"/><path d="M5.004 10.516v1.476c0 .504.406.91.91.91h10.004c.504 0 .91-.406.91-.91v-2.27c-3.781 2.216-4.094-.117-5.687-.16-.954-.027-1.59 1.239-2.567 1.157-.86-.07-1.07-1.114-2.219-1.055-.46.024-.671-.059-1.351.852zm0 0" fill="url(#l)"/><path d="M5.004 1.992a.909.909 0 0 0-.91.91v.114c0-.504.406-.91.91-.91h11.824c.504 0 .91.406.91.91v-.114a.909.909 0 0 0-.91-.91zm0 0" fill="#e6e6e6" fill-opacity=".588" stroke-width=".08594" stroke="#fff"/><path d="M5.004 1.926a.977.977 0 0 0-.977.976v12.735c0 .535.438.972.977.972h11.824c.54 0 .973-.437.973-.972V2.902a.974.974 0 0 0-.973-.976zm0 .129h11.824c.469 0 .844.375.844.847v12.735a.84.84 0 0 1-.844.843H5.004a.844.844 0 0 1-.848-.843V2.902c0-.472.38-.847.848-.847zm0 0" fill="#212121"/><path d="M14.098 3.809a1.365 1.365 0 1 1 0 0zm0 0" fill="url(#m)"/><path d="M5.914 2.836a.976.976 0 0 0-.976.973v8.187c0 .54.437.973.976.973h10.004a.97.97 0 0 0 .973-.973V3.81a.973.973 0 0 0-.973-.973zm0 .129h10.004a.84.84 0 0 1 .844.844v8.187a.84.84 0 0 1-.844.844H5.914a.841.841 0 0 1-.848-.844V3.81c0-.47.375-.844.848-.844zm0 0" fill="#212121"/><path d="M12.477 14.645c-.094-.614.664-.891.32.03-.305.817-.715.848-.707.641.035-.3.406-.148.68-.113.367.043.722-.476.699-.824" fill="none" stroke-width=".12891" stroke-linecap="round" stroke-linejoin="round" stroke="#1a237e"/><path d="M13.234 14.3c.192-.616 1.23-.902.883.024-.304.813-.8.805-.855.606-.051-.2.21-.555.207-.551M14.36 14c.757-.203.648-.492.62-.594-.417.82-.457 1.535-.425 1.32M15.215 13.629c.008-.5.824-.375.394.059-.355.355-.832.554-.652.824.219.293.809-.149.523-.426-.277-.242-.335-.332-.363-.434M12.164 15.918c2.277-1.137 4.89-1.137 4.324-.91" fill="none" stroke-width=".12891" stroke-linecap="round" stroke-linejoin="round" stroke="#1a237e"/></svg>
